icons/mimetypes/64/x-office-contact.svg

<?xml version="1.0" encoding="UTF-8" standalone="no"?>
<svg width="64" version="1.1" xmlns="http://www.w3.org/2000/svg" viewBox="0 0 64 64" height="64" xmlns:xlink="http://www.w3.org/1999/xlink" xmlns:inkscape="http://www.inkscape.org/namespaces/inkscape">
 <defs id="defs4">
  <linearGradient id="linearGradient4351">
   <stop style="stop-color:#c8e3fe" id="stop4353"/>
   <stop offset="1" style="stop-color:#ffffff" id="stop4355"/>
  </linearGradient>
  <linearGradient inkscape:collect="always" id="linearGradient4300">
   <stop style="stop-color:#22a7f0" id="stop4302"/>
   <stop offset="1" style="stop-color:#19b5fe" id="stop4304"/>
  </linearGradient>
  <linearGradient inkscape:collect="always" xlink:href="#linearGradient4300" id="linearGradient4306" y1="61" y2="3" x2="0" gradientUnits="userSpaceOnUse"/>
  <linearGradient inkscape:collect="always" xlink:href="#linearGradient4410" id="linearGradient4427" y1="31" x1="54" y2="17" x2="40" gradientUnits="userSpaceOnUse" gradientTransform="matrix(1 0 0 -1 -14 78)"/>
  <linearGradient inkscape:collect="always" id="linearGradient4410">
   <stop style="stop-color:#383e51" id="stop4412"/>
   <stop offset="1" style="stop-color:#655c6f;stop-opacity:0" id="stop4414"/>
  </linearGradient>
  <linearGradient inkscape:collect="always" xlink:href="#linearGradient4351" id="linearGradient4357" y1="61" y2="47" x2="0" gradientUnits="userSpaceOnUse"/>
 </defs>
 <metadata id="metadata84"/>
 <path style="fill:url(#linearGradient4306)" id="rect3500" d="M 10 3 L 10 61 L 40 61 L 54 47 L 54 17 L 54 3 L 40 3 L 10 3 z "/>
 <rect width="30" x="10" y="60" height="1" style="fill:#2e3132;fill-opacity:0.294118" id="rect4169"/>
 <rect width="44" x="10" y="3" height="1" style="fill:#ffffff;fill-opacity:0.409836" id="rect4236"/>
 <path inkscape:connector-curvature="0" style="fill:url(#linearGradient4357);fill-rule:evenodd" id="path4314" d="M 54,47 40,61 40,47 Z"/>
 <path inkscape:connector-curvature="0" style="fill:url(#linearGradient4427);opacity:0.2;fill-rule:evenodd" id="path4320" d="M 26,61 40,47 40,61 Z"/>
 <path style="shape-rendering:auto;color-interpolation-filters:linearRGB;fill:#ffffff;image-rendering:auto;text-rendering:auto;color:#000000;color-rendering:auto;color-interpolation:sRGB" id="rect4170" d="M 28.5 21 C 26.007 21 24 23.007 24 25.5 C 24 27.993 26.007 30 28.5 30 C 30.993 30 33 27.993 33 25.5 C 33 23.007 30.993 21 28.5 21 z M 28.5 22 C 30.439 22 32 23.561 32 25.5 C 32 27.439 30.439 29 28.5 29 C 26.561 29 25 27.439 25 25.5 C 25 23.561 26.561 22 28.5 22 z M 39 22.099609 C 37.338 22.099609 36 23.437609 36 25.099609 C 36 26.76161 37.338 28.099609 39 28.099609 C 40.662 28.099609 42 26.76161 42 25.099609 C 42 23.437609 40.662 22.099609 39 22.099609 z M 39 23.099609 C 40.108 23.099609 41 23.991609 41 25.099609 C 41 26.20761 40.108 27.099609 39 27.099609 C 37.892 27.099609 37 26.20761 37 25.099609 C 37 23.991609 37.892 23.099609 39 23.099609 z M 39 30 C 37.814201 30 36.764447 30.521432 36.033203 31.335938 A 9 9 0 0 1 36.736328 32.048828 C 37.285649 31.411429 38.088684 31 39 31 C 40.662 31 42 32.338 42 34 L 42 38 L 39 38 A 9 9 0 0 1 38.939453 39 L 42 39 C 42.352917 39 42.68601 39.070688 43 39.181641 L 43 39 L 43 38 L 43 34 C 43 31.784 41.216 30 39 30 z M 28.5 31 C 24.345 31 21 34.345 21 38.5 L 21 42 L 21 43 L 22 43 L 35 43 L 36 43 L 36 42 L 36 38.5 C 36 34.345 32.655 31 28.5 31 z M 28.5 32.101562 C 32.101 32.101562 35 35.000563 35 38.601562 L 35 42 L 22 42 L 22 38.601562 C 22 35.000563 24.899 32.101562 28.5 32.101562 z "/>
</svg>

<?xml version="1.0" encoding="UTF-8" standalone="no"?>
<svg
   xmlns:dc="http://purl.org/dc/elements/1.1/"
   xmlns:cc="http://creativecommons.org/ns#"
   xmlns:rdf="http://www.w3.org/1999/02/22-rdf-syntax-ns#"
   xmlns:svg="http://www.w3.org/2000/svg"
   xmlns="http://www.w3.org/2000/svg"
   xmlns:xlink="http://www.w3.org/1999/xlink"
   xmlns:sodipodi="http://sodipodi.sourceforge.net/DTD/sodipodi-0.dtd"
   xmlns:inkscape="http://www.inkscape.org/namespaces/inkscape"
   width="64"
   version="1.1"
   viewBox="0 0 64 64"
   height="64"
   id="svg2"
   inkscape:version="0.91 r13725"
   sodipodi:docname="x-office-contact.svg">
  <sodipodi:namedview
     pagecolor="#ffffff"
     bordercolor="#666666"
     borderopacity="1"
     objecttolerance="10"
     gridtolerance="10"
     guidetolerance="10"
     inkscape:pageopacity="0"
     inkscape:pageshadow="2"
     inkscape:window-width="1920"
     inkscape:window-height="1013"
     id="namedview24"
     showgrid="false"
     inkscape:zoom="3.6875"
     inkscape:cx="32"
     inkscape:cy="29.830508"
     inkscape:window-x="0"
     inkscape:window-y="0"
     inkscape:window-maximized="1"
     inkscape:current-layer="svg2" />
  <defs
     id="defs4">
    <linearGradient
       id="linearGradient4351">
      <stop
         style="stop-color:#c8e3fe"
         id="stop4353" />
      <stop
         offset="1"
         style="stop-color:#ffffff"
         id="stop4355" />
    </linearGradient>
    <linearGradient
       inkscape:collect="always"
       id="linearGradient4300">
      <stop
         style="stop-color:#22a7f0"
         id="stop4302" />
      <stop
         offset="1"
         style="stop-color:#19b5fe"
         id="stop4304" />
    </linearGradient>
    <linearGradient
       inkscape:collect="always"
       xlink:href="#linearGradient4300"
       id="linearGradient4306-3"
       y1="61"
       y2="3"
       x2="0"
       gradientUnits="userSpaceOnUse"
       gradientTransform="matrix(1,0,0,-1,0,64)" />
  </defs>
  <metadata
     id="metadata84">
    <rdf:RDF>
      <cc:Work
         rdf:about="">
        <dc:format>image/svg+xml</dc:format>
        <dc:type
           rdf:resource="http://purl.org/dc/dcmitype/StillImage" />
      </cc:Work>
    </rdf:RDF>
  </metadata>
  <path
     inkscape:connector-curvature="0"
     style="fill:url(#linearGradient4306-3);fill-opacity:1"
     d="m 10,3 0,58 30,0 14,0 L 54,47 54,18.414062 38.585938,3 10,3 Z"
     id="rect3500-6" />
  <rect
     width="44"
     x="10"
     y="60"
     height="1"
     style="fill:#2e3132;fill-opacity:0.29411801"
     id="rect4169-7" />
  <path
     inkscape:connector-curvature="0"
     style="fill:#ffffff;fill-opacity:0.40983599"
     d="m 10,3 0,1 29.585938,0 -1,-1 L 10,3 Z"
     id="rect4236-5" />
  <path
     inkscape:connector-curvature="0"
     style="fill:#2192f1;fill-opacity:1;fill-rule:evenodd"
     id="path4314-3"
     d="M 40,3 54,17 54,3 Z" />
  <rect
     width="0"
     x="-53.833336"
     y="22.833298"
     height="20.166639"
     style="fill:#5e6b78"
     id="rect4035" />
  <rect
     width="0"
     x="137.64157"
     y="23.999973"
     height="21.99995"
     style="fill:#ffffff"
     id="rect4035-75" />
  <rect
     width="0"
     x="137.00003"
     y="21.999975"
     height="21.99995"
     style="fill:#ffffff"
     id="rect4035-4" />
  <rect
     width="0"
     x="133.92828"
     y="21.772314"
     height="22.227785"
     style="fill:#fbd2bf"
     id="rect4035-3" />
  <rect
     width="0"
     x="137.00003"
     y="21.999975"
     height="21.99995"
     style="fill:#fbd2bf"
     id="rect4035-1" />
  <rect
     width="0"
     x="177"
     y="21.999975"
     height="21.99995"
     style="fill:#fbfbfb"
     id="rect4035-2" />
  <rect
     width="0"
     x="137.00003"
     y="21.999975"
     height="21.99995"
     style="fill:#fbfbfb"
     id="rect4035-8" />
  <rect
     width="0"
     x="-22.35836"
     y="23.999973"
     height="21.99995"
     style="fill:#ffffff"
     id="rect4035-7" />
  <rect
     width="0"
     x="-22.999901"
     y="21.999975"
     height="21.99995"
     style="fill:#ffffff"
     id="rect4035-4-5" />
  <rect
     width="0"
     x="-26.071617"
     y="21.772314"
     height="22.227785"
     style="fill:#fbd2bf"
     id="rect4035-3-3" />
  <rect
     width="0"
     x="-22.999901"
     y="21.999975"
     height="21.99995"
     style="fill:#fbd2bf"
     id="rect4035-1-5" />
  <rect
     width="0"
     x="57.64159"
     y="-43.999958"
     height="21.99995"
     style="fill:#ffffff"
     id="rect4035-5"
     transform="scale(1,-1)" />
  <rect
     width="0"
     x="57.00005"
     y="-45.999958"
     height="21.99995"
     style="fill:#ffffff"
     id="rect4035-4-6"
     transform="scale(1,-1)" />
  <rect
     width="0"
     x="53.928337"
     y="-46.227619"
     height="22.227785"
     style="fill:#fbd2bf"
     id="rect4035-3-2"
     transform="scale(1,-1)" />
  <rect
     width="0"
     x="57.00005"
     y="-45.999958"
     height="21.99995"
     style="fill:#fbd2bf"
     id="rect4035-1-9"
     transform="scale(1,-1)" />
  <path
     style="color:#000000;color-interpolation:sRGB;color-interpolation-filters:linearRGB;fill:#ffffff;color-rendering:auto;image-rendering:auto;shape-rendering:auto;text-rendering:auto"
     id="rect4170"
     d="M 28.5,21 C 26.007,21 24,23.007 24,25.5 24,27.993 26.007,30 28.5,30 30.993,30 33,27.993 33,25.5 33,23.007 30.993,21 28.5,21 Z m 0,1 C 30.439,22 32,23.561 32,25.5 32,27.439 30.439,29 28.5,29 26.561,29 25,27.439 25,25.5 25,23.561 26.561,22 28.5,22 Z M 39,22.09961 c -1.662,0 -3,1.338 -3,3 0,1.662001 1.338,3 3,3 1.662,0 3,-1.337999 3,-3 0,-1.662 -1.338,-3 -3,-3 z m 0,1 c 1.108,0 2,0.892 2,2 0,1.108001 -0.892,2 -2,2 -1.108,0 -2,-0.891999 -2,-2 0,-1.108 0.892,-2 2,-2 z M 39,30 c -1.185799,0 -2.235553,0.521432 -2.966797,1.335938 a 9,9 0 0 1 0.703125,0.71289 C 37.285649,31.411429 38.088684,31 39,31 c 1.662,0 3,1.338 3,3 l 0,4 -3,0 a 9,9 0 0 1 -0.06055,1 L 42,39 c 0.35292,0 0.68601,0.07069 1,0.181641 L 43,39 l 0,-1 0,-4 c 0,-2.216 -1.784,-4 -4,-4 z M 28.5,31 C 24.345,31 21,34.345 21,38.5 l 0,3.5 0,1 1,0 13,0 1,0 0,-1 0,-3.5 C 36,34.345 32.655,31 28.5,31 Z m 0,1.101562 c 3.601,0 6.5,2.899001 6.5,6.5 L 35,42 22,42 22,38.601562 c 0,-3.600999 2.899,-6.5 6.5,-6.5 z"
     inkscape:connector-curvature="0" />
</svg>
